X:690
T:Donegal Reel, The
C:Joe Buchanan's Scottish Tome - Page 218.2
I:218 2
Z:Carl Allison
R:Reel
L:1/16
M:4/4
K:D
A,2 | "D"D2DE F2FG | "D"A2FF AFEF | "A7"E2EF GFGA | "G"BdAF "A"EGFE |
"D"D2DE F2FG | "D"A2GF A2de | "D"f2fd "A7"efdB | "D"AF"E7"EF "D"D2 :|
A2 | "D"defg afdf | "D"afdf a2af | "A7"edef gfed | edef g2fe |
"D"d2df afdf | "D"afdf a2ag | "D"f2fd "A7"efdB | "D"AF"E7"EF "D"D2 :|

